svgs/thin/section.svg

<svg xmlns="http://www.w3.org/2000/svg" viewBox="0 0 256 512"><!--! Font Awesome Pro 6.3.0 by @fontawesome - https://fontawesome.com License - https://fontawesome.com/license (Commercial License) Copyright 2023 Fonticons, Inc. --><path d="M187.6 345.4c36.68-10.65 60.71-33.2 66.67-65.43c13.78-74.61-59.59-94.2-124.3-111.5L114.2 164.2C44.31 145.1 8.19 125.2 17.41 75.5c8.469-45.68 63.46-67.67 140-56.68c15.72 2.312 34.15 6.967 58.09 14.71c4.219 1.281 8.748-.9668 10.09-5.154c1.344-4.217-.9687-8.717-5.156-10.09c-24.81-7.998-44.12-12.87-60.71-15.28C73.93-9.54 11.84 17.74 1.658 72.57C-8.34 126.6 28.52 151.8 68.02 166.6C31.46 177.3 7.609 199.8 1.658 231.1C-11.96 305.6 61.4 325.7 109.9 339.1l15.94 4.279c63.68 17.03 123.8 33.12 112.7 93.13c-8.436 45.62-63.24 67.99-140 56.64c-24.31-3.406-51.78-12.65-75.99-20.81l-11.1-4.029c-4.156-1.344-8.719 .9062-10.12 5.061c-1.375 4.219 .875 8.748 5.062 10.12l11.94 4c24.9 8.373 53.09 17.9 78.83 21.49c13.87 2.031 27.12 3.031 39.65 3.031c64.9 0 109.9-26.62 118.4-72.58C263.1 387.1 230.7 361.8 187.6 345.4zM114.2 323.6C44.31 304.5 8.19 284.6 17.41 234.9C23.43 202.3 53.23 181.5 98.87 176.6c3.781 1.07 26.99 7.359 26.99 7.359c63.68 17.03 123.8 33.12 112.7 93.14c-6.031 32.66-36.54 53.31-82.05 58.14C147.7 332.7 114.2 323.6 114.2 323.6z"/></svg>

<svg xmlns="http://www.w3.org/2000/svg" viewBox="0 0 256 512"><!-- Font Awesome Pro 6.0.0-alpha2 by @fontawesome - https://fontawesome.com License - https://fontawesome.com/license (Commercial License) --><path d="M187.643 345.45C224.326 334.798 248.348 312.251 254.315 280.02C268.096 205.413 194.729 185.823 129.986 168.514L114.176 164.235C44.309 145.052 8.19 125.243 17.406 75.505C25.875 29.827 80.867 7.831 157.42 18.829C173.137 21.141 191.572 25.796 215.508 33.544C219.727 34.825 224.256 32.577 225.6 28.389C226.943 24.173 224.631 19.673 220.443 18.298C195.635 10.3 176.324 5.427 159.733 3.02C73.932 -9.54 11.844 17.735 1.658 72.567C-8.34 126.585 28.522 151.768 68.024 166.645C31.455 177.335 7.609 199.788 1.658 231.969C-11.965 305.577 61.401 325.729 109.926 339.071L125.861 343.35C189.541 360.378 249.692 376.468 238.567 436.485C230.131 482.1 175.324 504.471 98.522 493.13C74.213 489.723 46.746 480.475 22.531 472.321L10.533 468.292C6.377 466.948 1.815 469.198 0.408 473.352C-0.967 477.571 1.283 482.1 5.471 483.475L17.406 487.475C42.311 495.848 70.494 505.378 96.24 508.97C110.113 511.001 123.363 512.001 135.893 512.001C200.791 512.001 245.785 485.382 254.315 439.423C263.985 387.069 230.705 361.845 187.643 345.45ZM114.176 323.636C44.309 304.452 8.19 284.645 17.406 234.905C23.434 202.311 53.227 181.505 98.869 176.589C102.651 177.659 106.367 178.69 109.926 179.669L125.861 183.948C189.541 200.975 249.692 217.065 238.567 277.085C232.535 309.747 202.024 330.399 156.518 335.221C147.672 332.663 138.754 330.261 129.986 327.917L114.176 323.636Z"/></svg>
